src/assets/icons/Backwards.svg

<svg width="24" height="24" viewBox="0 0 24 24" fill="none" xmlns="http://www.w3.org/2000/svg">
<path d="M12 1C9.08501 1 6.26166 2.16418 4.16441 4.10835L2.17342 2.11836C1.9762 1.92131 1.68112 1.86256 1.42448 1.96898C1.16768 2.07523 1 2.32649 1 2.60411V8.5625C1 8.942 1.308 9.25 1.6875 9.25H7.64589C7.92451 9.25 8.17477 9.08232 8.28102 8.82552C8.38744 8.56888 8.32869 8.2728 8.13164 8.07658L5.46875 5.41286C7.22409 3.80505 9.56992 2.83339 12 2.83339C17.0545 2.83339 21.1666 6.94547 21.1666 12C21.1666 17.0545 17.0545 21.1666 12 21.1666C9.54877 21.1666 7.24893 20.2116 5.52464 18.479C5.16713 18.1197 4.58604 18.1187 4.22853 18.4762C3.86917 18.8337 3.86732 19.414 4.22484 19.7733C6.29657 21.8541 9.05748 23 12 23C18.0656 23 23 18.0656 23 12C23 5.93436 18.0656 1 12 1Z" fill="white"/>
</svg>

<svg xmlns="http://www.w3.org/2000/svg" width="24" height="24" fill="none"><path fill="#fff" d="M12 1C9.085 1 6.262 2.164 4.164 4.108l-1.99-1.99A.687.687 0 0 0 1 2.604v5.958c0 .38.308.688.688.688h5.958a.687.687 0 0 0 .486-1.173L5.469 5.413c1.755-1.608 4.1-2.58 6.531-2.58 5.055 0 9.167 4.112 9.167 9.167S17.054 21.167 12 21.167a9.073 9.073 0 0 1-6.475-2.688.917.917 0 0 0-1.3 1.294A10.895 10.895 0 0 0 12 23c6.066 0 11-4.934 11-11S18.066 1 12 1Z"/></svg>
